public/assets/images/icons/black/visibility-visible/perle.svg

<svg width="16" height="16" xmlns="http://www.w3.org/2000/svg" viewBox="0 0 16 16" shape-rendering="geometricPrecision"><defs><mask id="a"><rect fill="#fff" width="100%" height="100%"/><path d="M12.997.858a4.809 4.809 0 0 0-4.253 2.563 4.81 4.81 0 0 0 8.506 0A4.812 4.812 0 0 0 12.997.858z"/></mask></defs><path d="M12.971 1.607c-1.315 0-2.454.74-3.029 1.825a3.425 3.425 0 0 0 6.058 0 3.43 3.43 0 0 0-3.029-1.825z" fill="#cb1800"/><path mask="url(#a)" d="M8.039 1.977a6 6 0 1 0 0 12 6 6 0 0 0 0-12zm.374 6.606l-1.751-.329-.567 2.068-.708-1.677-1.685 1.377.748-2.044-1.816-.119 1.767-1.215-.884-1.543 1.751.329.568-2.07.706 1.68 1.687-1.378-.75 2.043 1.817.12-1.767 1.212.884 1.546z"/></svg>

<?xml version="1.0"?><!DOCTYPE svg PUBLIC "-//W3C//DTD SVG 1.1//EN" "http://www.w3.org/Graphics/SVG/1.1/DTD/svg11.dtd"><svg width="16px" height="16px" xmlns="http://www.w3.org/2000/svg" viewBox="0 0 16 16" shape-rendering="geometricPrecision" fill="#000"><defs><mask id="visibility-visible-path"><rect fill="#fff" width="100%" height="100%"/><path d="M12.997,0.858c-1.845,0-3.446,1.039-4.253,2.563c0.808,1.523,2.408,2.562,4.253,2.562 c1.844,0,3.444-1.039,4.253-2.562C16.441,1.897,14.841,0.858,12.997,0.858z" fill="#000"/></mask></defs><path display="inline" d="M12.971,1.607c-1.315,0-2.454,0.74-3.029,1.825 c0.575,1.085,1.715,1.825,3.029,1.825c1.314,0,2.453-0.74,3.029-1.825C15.424,2.348,14.284,1.607,12.971,1.607z" fill="#cb1800"/><path mask="url(#visibility-visible-path)" d="M8.039,1.977c-3.314,0-6,2.687-6,5.999c0,3.314,2.687,6.001,6,6.001c3.314,0,6-2.687,6-6.001 C14.04,4.663,11.353,1.977,8.039,1.977z M8.413,8.583L6.662,8.254l-0.567,2.068L5.387,8.645l-1.685,1.377L4.45,7.978L2.634,7.859 l1.767-1.215L3.517,5.101L5.268,5.43L5.836,3.36l0.706,1.68l1.687-1.378l-0.75,2.043l1.817,0.12L7.529,7.037L8.413,8.583z"/></svg>
